X:385
T: Boy from the Mountain HP
S: "Roche Collection of Traditional Irish Music" [II/61/346]
L: 1/8
M: 4/4
R: hornpipe
K: G
g/f/ | efed B2 e2 | dBAB G2 GE | GABd efed | BedB A2 gf |
efed B2 e2 | dBAB G2 GE | GABd gfed | edB/A/B G3 :|
A | Bdef g2 fg | agfg edBB | defg abag | fgfe d2 gf |
e/f/ged B2 e2 | dBAB G2 GE | GABd gfed | edB/A/B G3 :|
